!!!COM: Richard Wagner
!!!CNT: Deutsch
!!!TXO: Deutsch
!!!OTL: Schmerzen
!!!LYR: Wesendonk
!!!OPR: 5 Gedichte für eine Frauenstimme (Wesendonk Lieder)
!!!OPS: WWV 91 - no opus info available
!!!ONM: No. 4
!!!ENC: Ben Fuhrman
!!!YOR: IMSLP, no information given on the edition
!!!YOR: http://imslp.org/wiki/5_Gedichte_f%C3%BCr_eine_Frauenstimme,_WWV_91_%28Wagner,_Richard%29
!!!ODT: 1857
!!NB: Only vocal melody encoded.
!!NB: First instance of melodic material only encoded.
!!created: 2/10/10 3:17PM
!!proofed and posted: 2/10/10 3:20PM
**kern	**silbe
*clef G2	*
*k[b-e-a-]	*
*M4/4	*
*MM[Langsam und breit]	*
=3	=3
2r	.
{4.dd	{Son-
8cc	-ne
=4	=4
8.b-	wei-
16a-	-nest
8.g	je-
16f	-den
8.e-	A-
16d	-bend
8e-	dir
8f	die
=5	=5
8.g	scho2-
16c	-nen
2e-	Au-
4d	-gen
=6	=6
4c	rot,
8d	wenn
8e-	im
8.f	Mee-
16g	-res-
8.a-	-spie-
16b-	-gel
=7	=7
8cc	ba-
8a-	-dend
8.e-	dich
16c	er-
8.d	-reicht
16d	der
8b-	fru2-
8an	-he
=8	=8
2g}	Tod;}
4r	.
{8g	{doch
8g	er-
=9	=9
8.a-	-stehst
16b-	in
8.cc	al-
16dd	-ter
8ee-	Pracht,
8r	.
[4aa-	Glo-
=10	=10
16aa-]	|
16ee-	-ri-
16cc	-e
16b-	der
8.a-	du2st-
16g	-ren
4g	Welt,
8f	du
8f	am
=11	=11
8.ff	Mor-
16ee-	-gen
8.dd	neu
16cc	er-
4b-	-wacht,
8cc	wie
8cc	ein
=12	=12
8.ff	stol-
16b-	-zer
2dd	Sie-
4cc	-ges-
=13	=13
4b-}	-held!}
4r	.
2r	.
=14	=14
2r	.
{4.dd	{Ach,
8cc	wie
=15	=15
8.b-	soll-
16a-	-te
8g	ich
8f	da
8.e-	kla-
16d	-gen,
8e-	wie,
8f	mein
=16	=16
8.g	Herz,
16c	so
!! This is a dotted sixteenth in the score, I changed it to a regular sixteenth to get the right number of beats in the measure. - Fuhrman
8e-	schwer
8d	dich
4c	sehn,
8f	muss
8f	die
=17	=17
8.ee-	Son-
16dd-	-ne
8cc	selbst
8b-	ver-
8.a-	-za-
16g	-gen,
8a-	muss
8b-	die
=18	=18
8.cc	Son-
16f	-ne
8a-	un-
8g	-ter-
4f}	-gehn?}
4r	.
=19	=19
4r	.
{8.e-	{und
16e-	ge-
4.e-	-bie-
8a-	-ret
=20	=20
4cc-	Tod
4f	nur
8.dd-	Le-
16g-	-ben,
8g-	ge-
8g-	-ben
=21	=21
4.cc-	Schmer-
8cc-	-zen
(8ee-	Won
4ddn)	|
8dd-	-nen
=22	=22
4ccn}	nur:}
4r	.
{4.gg	{O,
8ff	wie
=23	=23
8.ee-	dank'
16dd-	ich,
8.cc	dass
16b-	ge-
8.a-	-ge-
16g	-ben
8.f	sol-
16ff	-che
=24	=24
4.ff	Schmer-
8a-	-zen
4.cc	mir
8b-	Na-
=25	=25
2a-}	-tur!}
2r	.
==	==
*-	*-
